X:1
T:Mairi Bhan Og (Fair Young Mary)
M:6/8
L:1/8
Q:80
C:
S:Slow Air
K:HP
{g}d/4e3/4 | \
{gfg}f2{g}B{g}B3/2{d}c/2{e}B | \
{gcd}c2{g}B{GdGe}B3/2{g}c/2d |
{g}e3/2f/2{g}e{gcd}c3/2{e}B/2{d}c | \
{g}A3{GAG}A2{d}c | \
{g}B2{GdGe}B{Gdc}d2e |
{g}f2{GdG}f{gfg}f2{g}e | \
{Gdc}d2f{g}f/2a3/2f | \
{gef}e3{A}e3/2{g}d/2e |
{g}f3/2g/2f{gef}e2d | \
{g}B/2d3/2{e}B{gBd}B3/2c/2d | \
{g}e3/2f/2{g}e{gcd}c3/2{e}B/2{d}c |
{g}A3{GAG}A2{d}c | \
{g}B2{GdGe}B{Gdc}d2e | \
{gfg}f3/2e/2{g}d{g}f/2a3/2g |
{afg}f3/2e/2{g}d{gef}e3/2d/2c | \
{g}B3{GdGe}B2|]
{g}f/4g3/4 |
a2{GdG}a{Bd}B3/2c/2d | \
{g}e3/2f/2{g}e{gef}e3/2d/2c | \
a2{GdG}a{cd}c3/2{e}B/2{d}c |
{g}A3{Gdc}d2c | \
{g}B2{GdGe}B{Gdc}d2e | \
{g}f2{GdG}f{gfg}f2{g}e |
{Gdc}d2f{g}f/2a3/2f | \
{gef}e3{A}e3/2{g}d/2e | \
{g}f3/2g/2f{gef}e2d |
{g}B/2d3/2{e}B{gBd}B3/2c/2d | \
{g}e3/2f/2{g}e{gcd}c3/2{e}B/2{d}c | \
{g}A3{GAG}A2{d}c |
{g}B2{GdGe}B{Gdc}d2e | \
{gfg}f3/2e/2{g}d{g}f/2a3/2g | \
{afg}f3/2e/2{g}d{gef}e3/2d/2c |
{g}B3{GdGe}B2|]
